!!!!SEGMENT: pl-cz--ii-87--004-009_hepner--msza-st-communio.krn
!!!cenid: 18xx:1196
!!!COM: Hepner
!!!COM-rismID: pe30021002
!!!CDT: ~1800-~1899
!!!CNT:
!!!OPR: Msza St.
!!!OTL: Communio
!!!OMV: 009
!!!PDT: 1888
!!!AGN: Sacred; Mass
!!!SMS-siglum: PL-CZ
!!!SMS-shelfmark: II-87
!!!SMS-shelfwork: 004-009 M
!!!SMS-variant:
!!!SMS-altvar:
!!!NIFC-rismSourceID: 300033223
!!!NIFC-rismChildID: 300033227
!!!NIFC-islandoraID: pl-cz:33881
!!!URL-pdf-islandora: https://repozytorium.nifc.pl/islandora/object/pl-cz%3A33881/datastream/PDF/view
!!!URL-scan: https://polish.musicsources.pl/pl/lokalizacje/galeria/rekopisy/6814/1 @EN{Scan on Polish Music Sources Website} @PL{Skany w portalu Dziedzictwo Muzyki Polskiej w otwartym dostępie}
!!!ONB-nifc: UWAGA: części Mszy: Kirie, Gloria, Graduale, Credo, Offertorium, Sanctus, Benedictus, Agnus, Communio, Benedicio
!!!OMD: Andante
!!!AIN: 1 organ 1 vox
!!!key: C
**kern	**kern	**text
*part2	*part1	*part1
*staff2	*staff1	*staff1
*I"Organo	*I"Voce	*
*Iorgan	*Ivox	*
*ICklav	*ICvox	*
*clefF4	*clefG2	*
*k[]	*k[]	*
*C:	*C:	*
*M4/4	*M4/4	*
*met(c)	*met(c)	*
=1	=1	=1
2.CC\ 2.C\	2.E</ 2.G</ 2.c</	.
4C\ 4c\	4f/ 4a/	Nie-
=2	=2	=2
4C\ 4c\	4f/ 4a/	-god-
4C\ 4c\	4e/ 4g/	-by
4C\ 4c\	4d#X/ 4f#X/	jes-
4C\ 4c\	4e/ 4g/	-tem
=3	=3	=3
4BB/	4Gn/ 4d/ 4fn/	pa-
4C/ 4G/	4G/ 4e/	-nie
4CC/	4r	.
4E\	4c/ 4a/	przy-
=4	=4	=4
4F\	4c/ 4a/	-jąc
4D\	4d/ 4f/ 4a/	przi-
4G\	4d/ 4f/ 4g/ 4b/	-jąc
4GG/	4d/ 4f/ 4g/ 4b/	cię
=5	=5	=5
8C/L	2e/ 2g/ 2cc/	do duszy
8CC/	.	.
8EE/	.	.
8GG/J	.	.
4D/	4dd\	lecz
4r	4r	.
=6	=6	=6
4GG/	4.b\ 4.dd\	nie-
4BB/	.	.
.	8g\ 8b\	-chaj
4D\	8f#X/L 8a/	to
.	8g/ 8b/	.
4D\	8a/ 8cc/	wy-
.	8b/J 8dd/	.
=7	=7	=7
4G\	(<8a/L 8cc/	-zna-
.	8g/J) 8b/	.
4GG/	4g/ 4b/	-nie
4G\	4r	.
8G\L	8b\L 8dd\	niech
8G\J	8b\J 8dd\	się
!!LO:LB:g=original
=8	=8	=8
2F#X\ 2c\	(>2a\ 2cc\ 2ee-X\	żal
4d\	4dd/)	.
4E-y\ 4e-X\	4a/ 4cc/	muj
=9	=9	=9
4B\ 4d\	8a/L 8cc/	wzru-
.	8g/J 8b/	.
4B\ 4d\	4g/ 4b/	-szy
4r	4r	.
4G\	4B/ 4d/ 4g/	po-
=10	=10	=10
1ryy	2c/ 2d/ 2f/ 2a/	-cieszmię
.	2d/ 2g/ 2b/	prze-
=11	=11	=11
2E\	2c/ 2g/ 2cc/	-bacze
2BB\ 2B\	2f/ 2g/ 2dd/	niem
=12	=12	=12
4E-X\ 4c\	2e-X/ 2ee-X/	daruj
4E-\ 4c\	.	.
4E-\ 4c\	4g\ 4ee-\	wi-
4E-\ 4c\	4g\ 4cc\	-ny
=13	=13	=13
4G\	8e-X/L 8a/ 8cc/	zbrod-
.	8d/J 8b/	.
!	!LO:SIC:v:n=3:s=2d/	!
4GG/	2e-/ 2g/ 2b/	-nie
4G\	.	.
4C/	4g\ 4cc\ 4een\	I
!!LO:LB:g=original
=14	=14	=14
4.c\	4.g/ 4.cc/ 4.ee/	u-
8G#X\	8g/ 8b/ 8dd/	-swieć
4.A\	4.e/ 4.g/ 4.a/ 4.cc/	sło-
8E\	8c/ 8g/ 8b-X/	-wem
=15	=15	=15
2.E\	2.c/ 2.f/ 2.a/	wej-
4F\	8a/L 8cc/	-rze-
.	8e/J 8g/	-niem
=16	=16	=16
2G\	2c/ 2e/ 2g/	bymcię
2G\	2d/ 2f/ 2a/ 2b/	przyjął
=17	=17	=17
2C\ 2c\	2e/ 2g/ 2cc/	godnie
2C\ 2c\	2f/ 2a/ 2cc/	bymcię
=18	=18	=18
1C\ [>1c\	2e\ 2g\ 2cc\	przyjoł
.	(<4.c/ 4.f#X/	go-
.	8e/) 8g/	.
=19	=19	=19
1C\ 1c\]	1e/ 1g/ 1cc/	-dnie
!!LO:LB:g=original
==	==	==
*-	*-	*-
!!!system-decoration: [(s1,s2)]
!!!RDF**kern: < = below
!!!RDF**kern: > = above
!!!ENC: Tomasz Grochalski
!!!END: 2020-11-08
!!!ENC: Marta Chmielewska
!!!END: 2021-11-15
!!!YEC: Copyright 2022 Narodowy Instytut Fryderyka Chopina (https://polishscores.org)
!!!YEM: License CC-BY-4.0 (https://creativecommons.org/licenses/by/4.0)
